icons/spraying_fill.svg

<svg width="48" height="48" viewBox="0 0 48 48" fill="none" xmlns="http://www.w3.org/2000/svg">
<path fill-rule="evenodd" clip-rule="evenodd" d="M24.7668 17.7356C25.143 17.9055 25.5605 18 26 18H30V12H32V10L28.6586 10C27.8349 7.66962 25.6124 6 23 6C19.6863 6 17 8.68629 17 12C17 15.3137 19.6863 18 23 18C23.6149 18 24.2083 17.9075 24.7668 17.7356ZM23 8C21.5194 8 20.2267 8.8044 19.5351 10H26.4649C25.7733 8.8044 24.4806 8 23 8ZM26 16C25.4477 16 25 15.5523 25 15V12H28V16H26Z" fill="black"/>
<path d="M10 20C7.79086 20 6 21.7909 6 24V30C6 32.2091 7.79086 34 10 34H10.0538C10.3109 36.3508 11.4735 38.2796 13.2099 39.6491C15.1667 41.1925 17.8124 42 20.6594 42C25.2115 42 29.4202 40.1671 30.8321 35.9935C31.7025 36.0672 32.5509 35.5604 32.8727 34.7022C33.1045 34.0841 33.0105 33.4236 32.6766 32.9094L36.4653 30.8472L35.5091 29.0906L30.6529 31.7338L25.6489 29.8573L25.6473 29.8567C25.2579 29.71 25 29.3373 25 28.921V26C25 24.8954 24.1046 24 23 24C21.8954 24 21 24.8954 21 26V31C21 31.8337 21.5171 32.5799 22.2978 32.8727L28.9341 35.3613C27.897 38.3879 24.7715 40 20.6594 40C18.1716 40 15.9876 39.2928 14.4485 38.0788C13.1364 37.044 12.2645 35.623 12.051 33.8605C13.7503 33.399 15 31.8454 15 30V24C15 21.7909 13.2091 20 11 20H12.5C13.0523 20 13.5 19.5523 13.5 19C13.5 18.4477 13.0523 18 12.5 18H8.5C7.94772 18 7.5 18.4477 7.5 19C7.5 19.5523 7.94772 20 8.5 20H10Z" fill="black"/>
<path d="M41.848 25.53L40.152 24.47L36.6958 30H42V28H40.3042L41.848 25.53Z" fill="black"/>
<path d="M18 20C16.8954 20 16 20.8954 16 22V31.5C16 34.5376 18.4624 37 21.5 37C22.7195 37 23.8464 36.6031 24.7584 35.9314L21.5955 34.7453C20.0343 34.1599 19 32.6674 19 31V26C19 23.7909 20.7909 22 23 22C25.2091 22 27 23.7909 27 26V23C27 21.3431 25.6569 20 24 20H18Z" fill="black"/>
</svg>

<svg
  xmlns="http://www.w3.org/2000/svg"
  width="24"
  height="24"
  viewBox="0 0 24 24"
  fill="none"
  stroke="currentColor"
  stroke-width="2"
  stroke-linecap="round"
  stroke-linejoin="round"
>
  <path
    fill-rule="evenodd"
    d="M24.767 17.736c.376.17.794.264 1.233.264h4v-6h2v-2h-3.341a6 6 0 1 0-3.892 7.736M23 8c-1.48 0-2.773.804-3.465 2h6.93A4 4 0 0 0 23 8m3 8a1 1 0 0 1-1-1v-3h3v4z"
    clip-rule="evenodd"
  />
  <path d="M10 20a4 4 0 0 0-4 4v6a4 4 0 0 0 4 4h.054c.257 2.35 1.42 4.28 3.156 5.65 1.957 1.543 4.602 2.35 7.45 2.35 4.552 0 8.76-1.833 10.172-6.007a2.001 2.001 0 0 0 1.845-3.084l3.788-2.062-.956-1.756-4.856 2.643-5.004-1.877h-.002A1 1 0 0 1 25 28.92V26a2 2 0 1 0-4 0v5a2 2 0 0 0 1.298 1.873l6.636 2.488C27.897 38.388 24.771 40 20.66 40c-2.487 0-4.671-.707-6.21-1.921-1.313-1.035-2.184-2.456-2.398-4.218A4 4 0 0 0 15 30v-6a4 4 0 0 0-4-4h1.5a1 1 0 1 0 0-2h-4a1 1 0 1 0 0 2z" />
  <path d="m41.848 25.53-1.696-1.06L36.696 30H42v-2h-1.696z" />
  <path d="M18 20a2 2 0 0 0-2 2v9.5a5.5 5.5 0 0 0 8.758 4.431l-3.162-1.186A4 4 0 0 1 19 31v-5a4 4 0 0 1 8 0v-3a3 3 0 0 0-3-3z" />
</svg>
